svgs/sharp-solid/diagram-previous.svg

<svg xmlns="http://www.w3.org/2000/svg" viewBox="0 0 512 512"><!--! Font Awesome Pro 6.6.0 by @fontawesome - https://fontawesome.com License - https://fontawesome.com/license (Commercial License) Copyright 2024 Fonticons, Inc. --><path d="M448 352L64 352l0 64 384 0 0-64zm64-64l0 64 0 64 0 64-64 0L64 480 0 480l0-64 0-64 0-64 64 0 168 0 0-64-40 0-32 0 0-32 73.4-73.4L256 96l22.6 22.6L352 192l0 32-32 0-40 0 0 64 168 0 64 0zM0 32l512 0 0 192-128 0 0-32 0-13.3-9.4-9.4-96-96L256 50.7 233.4 73.4l-96 96-9.4 9.4 0 13.3 0 32L0 224 0 32z"/></svg>

<svg xmlns="http://www.w3.org/2000/svg" viewBox="0 0 512 512"><!--! Font Awesome Pro 6.4.2 by @fontawesome - https://fontawesome.com License - https://fontawesome.com/license (Commercial License) Copyright 2023 Fonticons, Inc. --><path d="M448 352L64 352v64l384 0V352zm64-64v64 64 64H448 64 0V416 352 288H64 232V224l-40 0-32 0V192l73.4-73.4L256 96l22.6 22.6L352 192v32l-32 0-40 0v64H448h64zM0 32l512 0V224H384V192 178.7l-9.4-9.4-96-96L256 50.7 233.4 73.4l-96 96-9.4 9.4V192v32L0 224V32z"/></svg>
